X:1
T:Ned Coleman's jig
Z:Lesl Harker <lmh:RCONS.COM> IRTRAD-L 2000-11-03
S:Mike Rafferty
R:jig
M:6/8
K:G
D \
|: G~G2 EDE | GAB d3 | ege dge | dBA GED | G~G2 EDE | GAB d3 | ege dge | dBA G2D :|
|: g~g2 edB | dBA GED | DGG EDE | GAB d3 | g~g2 edB | dBA GED | G~G2 EGB | dBA G3 :|
